X:1
T:Zadok, 11.11.11.11
T:C. H. Forrest, ca. 1902
T:Zadok, 11.11.11.11
T:Public Domain
C:C. H. Forrest, ca. 1902
Z:Public Domain
%%score ( 1 2 ) ( 3 4 )
L:1/8
M:4/4
K:Ab
V:1 treble 
V:2 treble 
V:3 bass 
V:4 bass 
V:1
 [CE]3 [CE] [=B,F]2 [B,F]2 | [CA]4 [CA]4 | [=DB]3 [DB] [Ee]2 [E_d]2 | [Ec]8 | %4
 [Ec]3 [Ec] [=Ec]2 [EB]2 | [FA]2 [=EG]2 F2 (F_E) | [=DB]6 [DA]2 | [EG]8 | [EB]3 [EB] [Ee]2 [Ed]2 | %9
 [Ed]4 [Ec]4 | [Fc]3 [Fc] [Ff]2 [Fe]2 | [Fd]8 | [=Ec]3 [EB] [EA]2 [EG]2 | F2 [EG]2 [EA]2 [FB]2 | %14
 [Ec]4 [DB]4 | [CA]8 |] %16
V:2
 x8 | x8 | x8 | x8 | x8 | x4 F2 c2 | x8 | x8 | x8 | x8 | x8 | x8 | x8 | F2 x6 | x8 | x8 |] %16
V:3
 [A,,E,]3 [A,,E,] [A,,=D,]2 [A,,D,]2 | [A,,E,]4 A,4 | [F,A,]3 [F,A,] [E,G,]2 [E,G,]2 | [A,,A,]8 | %4
 [A,C]3 [A,C] [G,C]2 [C,C]2 | [F,C]2 [G,B,]2 [A,C]2 [F,A,]2 | (F,4 B,2) [B,,B,]2 | [E,B,]8 | %8
 E,2 z G, [C,A,]2 [B,,G,]2 | [=A,,F,]4 [A,,F,]4 | [F,,=A,]3 [F,,A,] [F,A,]2 [F,A,]2 | [B,,B,]8 | %12
 [C,G,]3 [C,G,] [C,C]2 [C,B,]2 | [D,A,]2 [D,B,]2 [C,A,]2 [D,F,]2 | [E,A,]4 [E,G,]4 | [A,,A,]8 |] %16
V:4
 x8 | x4 A,4 | x8 | x8 | x8 | x8 | B,,6 x2 | x8 | G,3 D,2 x3 | x8 | x8 | x8 | x8 | x8 | x8 | x8 |] %16

